assets/illustrations/default/stilingue-4.svg

<svg xmlns="http://www.w3.org/2000/svg" width="1080" height="1081" fill="none"><g clip-path="url(#a)"><path fill="url(#b)" d="M480.581 629.727H25.042A24.97 24.97 0 0 1 0 604.685V306.911a24.97 24.97 0 0 1 25.042-25.042h455.539a24.97 24.97 0 0 1 25.043 25.042v297.548c0 13.887-11.383 25.268-25.043 25.268"/><path fill="#fff" d="M148.886 455.795h-41.661c-6.374 0-11.383 5.008-11.383 11.383v69.435h64.427v-69.435c0-6.375-5.009-11.383-11.383-11.383"/><path fill="#0096FA" d="M272.502 374.977h-41.663c-6.374 0-11.382 5.008-11.382 11.382v150.025h64.428V386.359c0-6.146-5.008-11.382-11.383-11.382"/><path fill="#fff" d="M407.501 418.459h-64.426v117.925h64.426z"/><path stroke="#0096FA" stroke-miterlimit="10" stroke-width="6.83" d="M74.215 536.612h358.103"/><path fill="url(#c)" d="M844.147 616.977c-71.029 33.466-156.401 5.236-193.281-64.882-37.336-71.256-10.7-159.131 59.646-197.605l254.975-159.133v.227c.911-.455 1.822-1.136 2.732-1.592 22.766-12.065 50.991-3.188 63.061 19.578 9.33 17.757 6.15 38.473-6.37 52.588 0 0 35.51 50.313-.23 112.463-17.3 30.278-53.046 65.564-53.046 65.564s-15.708 118.61-127.487 172.792"/><path stroke="#0C4EC0" stroke-linecap="round" stroke-miterlimit="10" stroke-width="20.489" d="M977.328 199c18.44-9.789 41.202-2.504 50.762 15.936 4.1 7.968 5.24 16.62 3.65 24.815 0 0-12.75 65.338-132.954 142.741"/><path stroke="#0C4EC0" stroke-linecap="round" stroke-miterlimit="10" stroke-width="20.489" d="M1022.4 262.286s40.07 42.571 15.03 95.843c-25.04 53.271-72.85 99.942-135.228 140.92"/><path stroke="#0C4EC0" stroke-linecap="round" stroke-miterlimit="10" stroke-width="20.489" d="M652.686 551.867s62.148 134.09 207.621 67.614c105.632-48.035 120.887-183.49 120.887-183.49"/><path fill="#0C4EC0" d="m375.4 853.738 26.636 102.216c2.96 11.155 15.025 17.303 25.725 12.75 18.895-8.196 46.442-24.587 63.061-56.231L594.861 1019.7c2.732 2.73 7.058 2.73 9.562.23l20.261-19.81c2.731-2.504 2.733-6.83.229-9.562l-33.922-36.196 50.54 26.181c3.187 1.593 7.058.681 8.879-2.506l14.342-23.221c2.049-3.415.911-7.968-2.732-9.789l-50.996-24.586 43.711 2.503c3.642.228 6.83-2.503 7.285-6.145l2.277-25.727 110.186 65.567c3.187 1.821 7.057.91 9.106-2.05l10.472-15.709c2.276-3.187 1.138-7.74-2.277-9.789l-29.822-17.757 43.937 4.553c3.87.456 7.285-2.503 7.512-6.374l.912-17.756c.228-3.643-2.506-6.604-5.92-7.059l-39.385-5.009 32.784-10.015c3.415-1.139 5.464-4.782 4.553-8.197l-4.1-16.163a6.92 6.92 0 0 0-7.968-5.009l-44.619 8.651-269.09-41.661z"/><path fill="url(#d)" d="m853.253 654.539 4.097-240.406h-.456c-.227-137.504-108.136-252.469-247.234-259.299-143.423-7.057-265.674 103.355-272.731 246.778-.228 5.464-.457 11.157-.229 16.621h-.454l.909 11.836c.228 4.098.457 8.197.912 12.294L356.05 663.19h.685c2.504 129.309 104.721 236.308 235.851 242.91 136.822 6.829 253.381-98.575 260.211-235.625.455-5.463.683-10.699.456-15.936"/><path fill="#C5D9FB" d="M529.526 604.226c.455-78.542-60.784-144.106-140.009-148.204-80.363-4.097-148.888 57.142-154.124 137.277l-37.107 298.229h.229c-.228 1.139-.229 2.05-.229 3.188-1.366 25.726 18.441 47.581 44.166 48.947 19.806.91 37.563-10.7 45.076-28.002 0 0 60.556 10.926 101.989-47.354 20.262-28.457 37.337-75.809 37.337-75.809s100.623-64.2 102.672-188.272"/><path stroke="#0C4EC0" stroke-linecap="round" stroke-miterlimit="10" stroke-width="20.489" d="M206.253 900.409c-1.138 20.717 15.026 38.472 35.743 39.611 8.878.455 17.301-2.275 24.131-7.283 0 0 53.955-38.931 73.761-180.76"/><path stroke="#0C4EC0" stroke-linecap="round" stroke-miterlimit="10" stroke-width="20.489" d="M282.746 914.98s55.32 18.441 93.339-26.634 60.099-108.138 71.027-181.899"/><path stroke="#0C4EC0" stroke-linecap="round" stroke-miterlimit="10" stroke-width="20.489" d="M389.974 457.615s147.749 0 148.659 160.042c.683 115.877-115.875 186.905-115.875 186.905"/><path fill="#fff" d="M662.022 302.812s7.969 2.959 23.677-17.53c15.708-20.717 31.188-37.336 56.685-36.881s73.533 62.15 68.98 129.308c-4.781 67.159-42.571 136.14-177.343 132.953-134.773-3.188-241.544-74.899-233.121-170.287s89.013-137.732 139.553-134.317c50.767 3.415 88.786 32.782 104.722 76.947-.228-.227 6.603 19.352 16.847 19.807"/><path fill="#C5D9FB" d="M662.249 399.107s-2.047-48.49 15.483-67.385c17.529-18.896 47.351-42.118 93.565-40.069 0 0 14.342.911 15.025 16.392 0 0 .911 7.286-3.642 13.432 0 0 22.994 7.057 22.083 24.587-.91 17.529-13.431 18.896-22.765 19.806l-4.553 43.255s-3.872 57.596-54.867 56.685-58.052-34.603-60.329-66.703M494.691 249.313s-5.008-16.847 9.562-23.222c14.57-6.374 50.541.683 82.412 28.002s39.611 55.549 39.611 55.549 15.026 89.923-45.075 133.405c0 0-21.401 10.017-39.613 8.651-18.213-1.366-71.483-15.707-71.483-58.506s8.65-85.144 8.65-85.144-26.18-7.513-14.797-40.523c-.228 0 8.423-20.261 30.733-18.212"/><path fill="#1F1F1F" d="M597.138 408.216s-1.366 7.057 7.512 16.391 17.759 27.774 19.58 37.108 1.138 35.742 10.471 36.425 35.514-38.701 38.246-66.703-14.341-46.671-32.781-48.037c-18.668-1.366-38.93 4.099-43.028 24.816"/><path fill="#2A3871" d="M620.816 421.873a8.65 8.65 0 0 0 8.65-8.65 8.652 8.652 0 0 0-17.303 0c0 4.778 3.875 8.65 8.653 8.65"/><path fill="#02041A" d="M714.385 419.37c15.088 0 27.319-12.231 27.319-27.319s-12.231-27.319-27.319-27.319-27.319 12.231-27.319 27.319 12.231 27.319 27.319 27.319"/><path fill="#F9FAFA" d="M703.683 388.407c5.155 0 9.335-4.179 9.335-9.333 0-5.155-4.18-9.336-9.335-9.336s-9.333 4.181-9.333 9.336a9.333 9.333 0 0 0 9.333 9.333"/><path fill="#02041A" d="M552.292 380.9c15.088 0 27.319-12.231 27.319-27.319s-12.231-27.318-27.319-27.318-27.318 12.231-27.318 27.318 12.231 27.319 27.318 27.319"/><path fill="#F9FAFA" d="M541.594 349.938a9.336 9.336 0 0 0 9.335-9.335c0-5.155-4.18-9.333-9.335-9.333a9.33 9.33 0 0 0-9.333 9.333c0 5.155 4.178 9.335 9.333 9.335"/><path fill="#35DE90" d="M395.44 717.827H84.233c-10.017 0-18.213-8.196-18.213-18.213v-69.208c0-10.017 8.196-18.213 18.213-18.213H395.44c10.016 0 18.212 8.196 18.212 18.213v69.208c0 10.017-8.196 18.213-18.212 18.213"/><path fill="#F67979" d="M1068.62 530.694H894.007c-5.919 0-10.7 4.782-10.7 10.701v141.829c0 5.919 4.781 10.7 10.7 10.7h51.45l14.342 20.263 12.977 18.212c4.325 6.147 13.431 6.147 17.756 0l12.978-18.212 14.34-20.263h51.45c5.92 0 10.7-4.781 10.7-10.7V541.395c-.45-5.919-5.24-10.701-11.38-10.701"/><path fill="#fff" d="M1032.65 604.453c-.46-12.976-11.16-23.903-24.14-24.586-14.338-.911-26.177 10.017-27.088 23.904h-.226c-.911-14.57-13.888-25.725-28.913-23.904-11.155 1.366-20.262 10.244-22.083 21.172-1.594 9.561 2.276 18.212 8.65 23.904l34.833 30.277c4.326 3.643 10.699 3.643 15.025 0l35.512-30.733c5.47-4.781 8.65-11.838 8.43-20.034"/><path stroke="#fff" stroke-miterlimit="10" stroke-width="9.106" d="M107.684 665.012H373.13"/><path fill="#072F73" d="M105.629 665.01v-22.993c0-6.374 6.83-10.245 12.294-7.058l20.034 11.612 20.033 11.609c5.464 3.187 5.464 10.928 0 14.115l-20.033 11.61-20.034 11.612c-5.464 3.187-12.294-.685-12.294-7.059z"/><path fill="#0C4EC0" fill-rule="evenodd" d="M757.261 633.305c3.41-4.595 9.9-5.554 14.494-2.143 7.282 5.406 17.383 3.825 22.596-3.207 3.407-4.596 9.896-5.561 14.493-2.153s5.561 9.896 2.153 14.493c-12.082 16.299-35.187 19.684-51.594 7.504-4.594-3.411-5.553-9.9-2.142-14.494M669.399 641.854c3.494-4.532 10-5.372 14.531-1.878 7.182 5.538 17.311 4.142 22.651-2.794 3.49-4.534 9.996-5.38 14.529-1.889 4.534 3.491 5.38 9.996 1.889 14.53-12.377 16.076-35.541 19.039-51.722 6.562-4.531-3.494-5.372-10-1.878-14.531M581.399 653.854c3.494-4.532 10-5.372 14.531-1.878 7.182 5.538 17.311 4.142 22.651-2.794 3.49-4.534 9.996-5.38 14.529-1.889 4.534 3.491 5.38 9.996 1.889 14.53-12.377 16.076-35.541 19.039-51.722 6.562-4.531-3.494-5.372-10-1.878-14.531M619.399 715.854c3.494-4.532 10-5.372 14.531-1.878 7.182 5.538 17.311 4.142 22.651-2.794 3.49-4.534 9.996-5.38 14.529-1.889 4.534 3.491 5.38 9.996 1.889 14.53-12.377 16.076-35.541 19.039-51.722 6.562-4.531-3.494-5.372-10-1.878-14.531M713.399 699.854c3.494-4.532 10-5.372 14.531-1.878 7.182 5.538 17.311 4.142 22.651-2.794 3.49-4.534 9.996-5.38 14.529-1.889 4.534 3.491 5.38 9.996 1.889 14.53-12.377 16.076-35.541 19.039-51.722 6.562-4.531-3.494-5.372-10-1.878-14.531M676.399 772.854c3.494-4.532 10-5.372 14.531-1.878 7.182 5.538 17.311 4.142 22.651-2.794 3.49-4.534 9.996-5.38 14.529-1.889 4.534 3.491 5.38 9.996 1.889 14.53-12.377 16.076-35.541 19.039-51.722 6.562-4.531-3.494-5.372-10-1.878-14.531" clip-rule="evenodd"/></g><defs><linearGradient id="b" x1="-97.458" x2="518.587" y1="159.669" y2="680.676" gradientUnits="userSpaceOnUse"><stop offset=".159" stop-color="#0096FA"/><stop offset=".356" stop-color="#0D7FF5"/><stop offset=".56" stop-color="#166EF1"/><stop offset=".713" stop-color="#1968F0"/></linearGradient><linearGradient id="c" x1="451.111" x2="1145.23" y1="547.909" y2="331.153" gradientUnits="userSpaceOnUse"><stop stop-color="#1968F0"/><stop offset=".312" stop-color="#6197F5"/><stop offset=".724" stop-color="#C5D9FB"/></linearGradient><linearGradient id="d" x1="128.44" x2="630.463" y1="661.552" y2="521.864" gradientUnits="userSpaceOnUse"><stop stop-color="#1968F0"/><stop offset=".083" stop-color="#2E76F1"/><stop offset=".312" stop-color="#6499F5"/><stop offset=".527" stop-color="#8EB5F7"/><stop offset=".719" stop-color="#ACC9F9"/><stop offset=".884" stop-color="#BED5FB"/><stop offset="1" stop-color="#C5D9FB"/></linearGradient><clipPath id="a"><path fill="#fff" d="M0 .514h1080v1080H0z"/></clipPath></defs></svg>

<svg width="1080" height="1081" viewBox="0 0 1080 1081" fill="none" xmlns="http://www.w3.org/2000/svg">
<g clip-path="url(#clip0_18735_5882)">
<path d="M480.581 629.727H25.0422C11.1552 629.727 0 618.572 0 604.685V306.911C0 293.024 11.1552 281.869 25.0422 281.869H480.581C494.469 281.869 505.624 293.024 505.624 306.911V604.459C505.624 618.346 494.241 629.727 480.581 629.727Z" fill="url(#paint0_linear_18735_5882)"/>
<path d="M148.886 455.795H107.225C100.851 455.795 95.8423 460.803 95.8423 467.178V536.613H160.269V467.178C160.269 460.803 155.26 455.795 148.886 455.795Z" fill="white"/>
<path d="M272.502 374.977H230.839C224.465 374.977 219.457 379.985 219.457 386.359V536.384H283.885V386.359C283.885 380.213 278.877 374.977 272.502 374.977Z" fill="#0096FA"/>
<path d="M407.501 418.459H343.075V536.384H407.501V418.459Z" fill="white"/>
<path d="M74.2148 536.612H432.318" stroke="#0096FA" stroke-width="6.82969" stroke-miterlimit="10"/>
<path d="M844.147 616.977C773.118 650.443 687.746 622.213 650.866 552.095C613.53 480.839 640.166 392.964 710.512 354.49L965.487 195.357V195.584C966.398 195.129 967.309 194.448 968.219 193.992C990.985 181.927 1019.21 190.804 1031.28 213.57C1040.61 231.327 1037.43 252.043 1024.91 266.158C1024.91 266.158 1060.42 316.471 1024.68 378.621C1007.38 408.899 971.634 444.185 971.634 444.185C971.634 444.185 955.926 562.795 844.147 616.977Z" fill="url(#paint1_linear_18735_5882)"/>
<path d="M977.328 199C995.768 189.211 1018.53 196.496 1028.09 214.936C1032.19 222.904 1033.33 231.556 1031.74 239.751C1031.74 239.751 1018.99 305.089 898.786 382.492" stroke="#0C4EC0" stroke-width="20.4891" stroke-miterlimit="10" stroke-linecap="round"/>
<path d="M1022.4 262.286C1022.4 262.286 1062.47 304.857 1037.43 358.129C1012.39 411.4 964.58 458.071 902.202 499.049" stroke="#0C4EC0" stroke-width="20.4891" stroke-miterlimit="10" stroke-linecap="round"/>
<path d="M652.686 551.867C652.686 551.867 714.834 685.957 860.307 619.481C965.939 571.446 981.194 435.991 981.194 435.991" stroke="#0C4EC0" stroke-width="20.4891" stroke-miterlimit="10" stroke-linecap="round"/>
<path d="M375.4 853.738L402.036 955.954C404.996 967.109 417.061 973.257 427.761 968.704C446.656 960.508 474.203 944.117 490.822 912.473L594.861 1019.7C597.593 1022.43 601.919 1022.43 604.423 1019.93L624.684 1000.12C627.415 997.616 627.417 993.29 624.913 990.558L590.991 954.362L641.531 980.543C644.718 982.136 648.589 981.224 650.41 978.037L664.752 954.816C666.801 951.401 665.663 946.848 662.02 945.027L611.024 920.441L654.735 922.944C658.377 923.172 661.565 920.441 662.02 916.799L664.297 891.072L774.483 956.639C777.67 958.46 781.54 957.549 783.589 954.589L794.061 938.88C796.337 935.693 795.199 931.14 791.784 929.091L761.962 911.334L805.899 915.887C809.769 916.343 813.184 913.384 813.411 909.513L814.323 891.757C814.551 888.114 811.817 885.153 808.403 884.698L769.018 879.689L801.802 869.674C805.217 868.535 807.266 864.892 806.355 861.477L802.255 845.314C801.345 841.899 797.93 839.622 794.287 840.305L749.668 848.956L480.578 807.295L375.4 853.738Z" fill="#0C4EC0"/>
<path d="M853.253 654.539L857.35 414.133H856.894C856.667 276.629 748.758 161.664 609.66 154.834C466.237 147.777 343.986 258.189 336.929 401.612C336.701 407.076 336.472 412.769 336.7 418.233H336.246L337.155 430.069C337.383 434.167 337.612 438.266 338.067 442.363L356.05 663.19H356.735C359.239 792.499 461.456 899.498 592.586 906.1C729.408 912.929 845.967 807.525 852.797 670.475C853.252 665.012 853.48 659.776 853.253 654.539Z" fill="url(#paint2_linear_18735_5882)"/>
<path d="M529.526 604.226C529.981 525.684 468.742 460.12 389.517 456.022C309.154 451.925 240.629 513.164 235.393 593.299L198.286 891.528H198.515C198.287 892.667 198.286 893.578 198.286 894.716C196.92 920.442 216.727 942.297 242.452 943.663C262.258 944.573 280.015 932.963 287.528 915.661C287.528 915.661 348.084 926.587 389.517 868.307C409.779 839.85 426.854 792.498 426.854 792.498C426.854 792.498 527.477 728.298 529.526 604.226Z" fill="#C5D9FB"/>
<path d="M206.253 900.409C205.115 921.126 221.279 938.881 241.996 940.02C250.874 940.475 259.297 937.745 266.127 932.737C266.127 932.737 320.082 893.806 339.888 751.977" stroke="#0C4EC0" stroke-width="20.4891" stroke-miterlimit="10" stroke-linecap="round"/>
<path d="M282.746 914.98C282.746 914.98 338.066 933.421 376.085 888.346C414.103 843.27 436.184 780.208 447.112 706.447" stroke="#0C4EC0" stroke-width="20.4891" stroke-miterlimit="10" stroke-linecap="round"/>
<path d="M389.974 457.615C389.974 457.615 537.723 457.615 538.633 617.657C539.316 733.534 422.758 804.562 422.758 804.562" stroke="#0C4EC0" stroke-width="20.4891" stroke-miterlimit="10" stroke-linecap="round"/>
<path d="M662.022 302.812C662.022 302.812 669.991 305.771 685.699 285.282C701.407 264.565 716.887 247.946 742.384 248.401C767.882 248.856 815.917 310.551 811.364 377.709C806.583 444.868 768.793 513.849 634.021 510.662C499.248 507.474 392.477 435.763 400.9 340.375C409.323 244.987 489.913 202.643 540.453 206.058C591.22 209.473 629.239 238.84 645.175 283.005C644.947 282.778 651.778 302.357 662.022 302.812Z" fill="white"/>
<path d="M662.249 399.107C662.249 399.107 660.202 350.617 677.732 331.722C695.261 312.826 725.083 289.604 771.297 291.653C771.297 291.653 785.639 292.564 786.322 308.045C786.322 308.045 787.233 315.331 782.68 321.477C782.68 321.477 805.674 328.534 804.763 346.064C803.853 363.593 791.332 364.96 781.998 365.87L777.445 409.125C777.445 409.125 773.573 466.721 722.578 465.81C671.583 464.899 664.526 431.207 662.249 399.107Z" fill="#C5D9FB"/>
<path d="M494.691 249.313C494.691 249.313 489.683 232.466 504.253 226.091C518.823 219.717 554.794 226.774 586.665 254.093C618.537 281.411 626.276 309.642 626.276 309.642C626.276 309.642 641.302 399.565 581.201 443.047C581.201 443.047 559.8 453.064 541.588 451.698C523.375 450.332 470.105 435.991 470.105 393.192C470.105 350.392 478.755 308.048 478.755 308.048C478.755 308.048 452.575 300.535 463.958 267.525C463.73 267.525 472.381 247.264 494.691 249.313Z" fill="#C5D9FB"/>
<path d="M597.138 408.216C597.138 408.216 595.772 415.273 604.65 424.607C613.529 433.941 622.409 452.381 624.23 461.715C626.051 471.049 625.368 497.457 634.701 498.14C644.035 498.823 670.215 459.439 672.947 431.437C675.679 403.435 658.606 384.766 640.166 383.4C621.498 382.034 601.236 387.499 597.138 408.216Z" fill="#1F1F1F"/>
<path d="M620.816 421.873C625.594 421.873 629.466 418.001 629.466 413.223C629.466 408.445 625.594 404.572 620.816 404.572C616.038 404.572 612.163 408.445 612.163 413.223C612.163 418.001 616.038 421.873 620.816 421.873Z" fill="#2A3871"/>
<path d="M714.385 419.37C729.473 419.37 741.704 407.139 741.704 392.051C741.704 376.963 729.473 364.732 714.385 364.732C699.297 364.732 687.066 376.963 687.066 392.051C687.066 407.139 699.297 419.37 714.385 419.37Z" fill="#02041A"/>
<path d="M703.683 388.407C708.838 388.407 713.018 384.228 713.018 379.074C713.018 373.919 708.838 369.738 703.683 369.738C698.528 369.738 694.35 373.919 694.35 379.074C694.35 384.228 698.528 388.407 703.683 388.407Z" fill="#F9FAFA"/>
<path d="M552.292 380.9C567.38 380.9 579.611 368.669 579.611 353.581C579.611 338.494 567.38 326.263 552.292 326.263C537.205 326.263 524.974 338.494 524.974 353.581C524.974 368.669 537.205 380.9 552.292 380.9Z" fill="#02041A"/>
<path d="M541.594 349.938C546.749 349.938 550.929 345.758 550.929 340.603C550.929 335.448 546.749 331.27 541.594 331.27C536.439 331.27 532.261 335.448 532.261 340.603C532.261 345.758 536.439 349.938 541.594 349.938Z" fill="#F9FAFA"/>
<path d="M395.44 717.827H84.233C74.2161 717.827 66.0205 709.631 66.0205 699.614V630.406C66.0205 620.389 74.2161 612.193 84.233 612.193H395.44C405.456 612.193 413.652 620.389 413.652 630.406V699.614C413.652 709.631 405.456 717.827 395.44 717.827Z" fill="#35DE90"/>
<path d="M1068.62 530.694H894.007C888.088 530.694 883.307 535.476 883.307 541.395V683.224C883.307 689.143 888.088 693.924 894.007 693.924H945.457L959.799 714.187L972.776 732.399C977.101 738.546 986.207 738.546 990.532 732.399L1003.51 714.187L1017.85 693.924H1069.3C1075.22 693.924 1080 689.143 1080 683.224V541.395C1079.55 535.476 1074.76 530.694 1068.62 530.694Z" fill="#F67979"/>
<path d="M1032.65 604.453C1032.19 591.477 1021.49 580.55 1008.51 579.867C994.172 578.956 982.333 589.884 981.422 603.771H981.196C980.285 589.201 967.308 578.046 952.283 579.867C941.128 581.233 932.021 590.111 930.2 601.039C928.606 610.6 932.476 619.251 938.85 624.943L973.683 655.22C978.009 658.863 984.382 658.863 988.708 655.22L1024.22 624.487C1029.69 619.706 1032.87 612.649 1032.65 604.453Z" fill="white"/>
<path d="M107.684 665.012H373.13" stroke="white" stroke-width="9.10625" stroke-miterlimit="10"/>
<path d="M105.629 665.01V642.017C105.629 635.643 112.459 631.772 117.923 634.959L137.957 646.571L157.99 658.18C163.454 661.367 163.454 669.108 157.99 672.295L137.957 683.905L117.923 695.517C112.459 698.704 105.629 694.832 105.629 688.458V665.01Z" fill="#072F73"/>
<path fill-rule="evenodd" clip-rule="evenodd" d="M757.261 633.305C760.671 628.71 767.161 627.751 771.755 631.162C779.037 636.568 789.138 634.987 794.351 627.955C797.758 623.359 804.247 622.394 808.844 625.802C813.441 629.209 814.405 635.698 810.997 640.295C798.915 656.594 775.81 659.979 759.403 647.799C754.809 644.388 753.85 637.899 757.261 633.305Z" fill="#0C4EC0"/>
<path fill-rule="evenodd" clip-rule="evenodd" d="M669.399 641.854C672.893 637.322 679.399 636.482 683.93 639.976C691.112 645.514 701.241 644.118 706.581 637.182C710.071 632.648 716.577 631.802 721.11 635.293C725.644 638.784 726.49 645.289 722.999 649.823C710.622 665.899 687.458 668.862 671.277 656.385C666.746 652.891 665.905 646.385 669.399 641.854Z" fill="#0C4EC0"/>
<path fill-rule="evenodd" clip-rule="evenodd" d="M581.399 653.854C584.893 649.322 591.399 648.482 595.93 651.976C603.112 657.514 613.241 656.118 618.581 649.182C622.071 644.648 628.577 643.802 633.11 647.293C637.644 650.784 638.49 657.289 634.999 661.823C622.622 677.899 599.458 680.862 583.277 668.385C578.746 664.891 577.905 658.385 581.399 653.854Z" fill="#0C4EC0"/>
<path fill-rule="evenodd" clip-rule="evenodd" d="M619.399 715.854C622.893 711.322 629.399 710.482 633.93 713.976C641.112 719.514 651.241 718.118 656.581 711.182C660.071 706.648 666.577 705.802 671.11 709.293C675.644 712.784 676.49 719.289 672.999 723.823C660.622 739.899 637.458 742.862 621.277 730.385C616.746 726.891 615.905 720.385 619.399 715.854Z" fill="#0C4EC0"/>
<path fill-rule="evenodd" clip-rule="evenodd" d="M713.399 699.854C716.893 695.322 723.399 694.482 727.93 697.976C735.112 703.514 745.241 702.118 750.581 695.182C754.071 690.648 760.577 689.802 765.11 693.293C769.644 696.784 770.49 703.289 766.999 707.823C754.622 723.899 731.458 726.862 715.277 714.385C710.746 710.891 709.905 704.385 713.399 699.854Z" fill="#0C4EC0"/>
<path fill-rule="evenodd" clip-rule="evenodd" d="M676.399 772.854C679.893 768.322 686.399 767.482 690.93 770.976C698.112 776.514 708.241 775.118 713.581 768.182C717.071 763.648 723.577 762.802 728.11 766.293C732.644 769.784 733.49 776.289 729.999 780.823C717.622 796.899 694.458 799.862 678.277 787.385C673.746 783.891 672.905 777.385 676.399 772.854Z" fill="#0C4EC0"/>
</g>
<defs>
<linearGradient id="paint0_linear_18735_5882" x1="-97.4581" y1="159.669" x2="518.587" y2="680.676" gradientUnits="userSpaceOnUse">
<stop offset="0.1591" stop-color="#0096FA"/>
<stop offset="0.3563" stop-color="#0D7FF5"/>
<stop offset="0.5602" stop-color="#166EF1"/>
<stop offset="0.7127" stop-color="#1968F0"/>
</linearGradient>
<linearGradient id="paint1_linear_18735_5882" x1="451.111" y1="547.909" x2="1145.23" y2="331.153" gradientUnits="userSpaceOnUse">
<stop stop-color="#1968F0"/>
<stop offset="0.312" stop-color="#6197F5"/>
<stop offset="0.7237" stop-color="#C5D9FB"/>
</linearGradient>
<linearGradient id="paint2_linear_18735_5882" x1="128.44" y1="661.552" x2="630.463" y2="521.864" gradientUnits="userSpaceOnUse">
<stop stop-color="#1968F0"/>
<stop offset="0.0827865" stop-color="#2E76F1"/>
<stop offset="0.3123" stop-color="#6499F5"/>
<stop offset="0.5267" stop-color="#8EB5F7"/>
<stop offset="0.7194" stop-color="#ACC9F9"/>
<stop offset="0.8836" stop-color="#BED5FB"/>
<stop offset="1" stop-color="#C5D9FB"/>
</linearGradient>
<clipPath id="clip0_18735_5882">
<rect width="1080" height="1080" fill="white" transform="translate(0 0.513672)"/>
</clipPath>
</defs>
</svg>
